.local/share/icons/Gruvbox-Plus-Dark/mimetypes/scalable/application-vnd.oasis.opendocument.database.svg

<svg width="256" height="256" viewBox="0 0 256 256" fill="none" xmlns="http://www.w3.org/2000/svg">
<g opacity="0.4" filter="url(#filter0_f)">
<path d="M55.0839 15.5636H155.608L216.009 75.7129L216.011 224.609C216.011 233.52 208.749 240.737 199.838 240.737H55.0838C46.1734 240.737 39 233.564 39 224.654V31.6474C39 22.737 46.1734 15.5636 55.0838 15.5636H55.0839Z" fill="#282828"/>
</g>
<path d="M55.0839 15H155.608L216.009 75.1493L216.011 224.045C216.011 232.956 208.749 240.174 199.838 240.174H55.0838C46.1734 240.174 39 233 39 224.09V31.0838C39 22.1734 46.1734 15 55.0838 15H55.0839Z" fill="#ebdbb2"/>
<path opacity="0.2" d="M199.838 240.174C208.749 240.174 216.011 232.956 216.011 224.046L216.01 186.5H39V224.09C39 233 46.1734 240.174 55.0838 240.174H199.838Z" fill="url(#paint0_linear)"/>
<path fill-rule="evenodd" clip-rule="evenodd" d="M155.608 20.3191H55.0839C49.1112 20.3191 44.3191 25.1111 44.3191 31.0838V224.09C44.3191 230.063 49.1111 234.855 55.0838 234.855H199.838C205.83 234.855 210.692 229.999 210.692 224.046V75.1493L155.608 20.3191ZM155.608 15H55.0839C46.1735 15 39 22.1734 39 31.0838V224.09C39 233 46.1734 240.174 55.0838 240.174H199.838C208.749 240.174 216.011 232.956 216.011 224.045L216.009 75.1493L155.608 15Z" fill="url(#paint1_linear)"/>
<path d="M99.9339 226.48C108.974 226.48 112.214 218.92 112.214 212C112.214 205.08 108.974 197.52 99.9339 197.52C90.9339 197.52 87.6539 205.08 87.6539 212C87.6539 218.92 90.9339 226.48 99.9339 226.48ZM99.9339 221.88C94.4939 221.88 92.6139 216.56 92.6139 212C92.6139 207.68 94.4939 202.12 99.9339 202.12C105.374 202.12 107.254 207.4 107.254 212C107.254 216.28 105.334 221.88 99.9339 221.88ZM118.029 198V226H126.509C136.789 226 140.149 218.4 140.149 212C140.149 205.04 136.469 198 126.669 198H118.029ZM127.189 221.48H122.829V202.52H127.629C132.949 202.52 135.189 207.28 135.189 212C135.189 216.4 133.149 221.48 127.189 221.48ZM145.959 198V226H157.999C164.919 226 167.359 221.6 167.359 217.72C167.359 215.2 166.079 212.44 162.759 211.24C165.239 210.04 166.359 207.84 166.359 205.48C166.359 201.68 164.159 198 157.399 198H145.959ZM156.759 209.28H150.759V202.44H157.519C160.839 202.44 161.519 204.2 161.519 205.84C161.519 207.88 159.959 209.28 156.759 209.28ZM158.279 221.56H150.759V213.72H157.119C161.479 213.72 162.479 215.76 162.479 217.84C162.479 219.56 161.559 221.56 158.279 221.56Z" fill="url(#paint2_linear)"/>
<path d="M128.001 47C113.281 47 99.7718 49.2883 89.7979 53.125C84.8243 55.0382 80.5254 57.4154 77.4001 60.2578C74.5188 62.8782 72.3648 66.1618 72.0449 70.0078H72V95.0059V119.006V143.006C72.0034 148.482 75.7275 152.983 80.7534 156.33C85.8748 159.741 92.958 162.409 101.135 164.225C109.358 166.051 118.618 167 128.001 167C137.384 167 146.642 166.051 154.865 164.225C163.041 162.409 170.127 159.741 175.249 156.33C180.274 152.983 183.997 148.482 184 143.006H183.996V119.098C183.996 119.067 184 119.037 184 119.006H183.996V95.0977C183.996 95.0668 184 95.0369 184 95.0059H183.996V71.0254V71.002V70.9785V70.0078H183.955C183.635 66.1618 181.484 62.8782 178.602 60.2578C175.477 57.4154 171.176 55.0382 166.202 53.125C156.229 49.2883 142.722 47 128.001 47ZM127.36 55.1426C127.43 55.1425 127.5 55.1425 127.569 55.1426C140.012 55.1426 151.945 56.7444 160.743 59.5955C169.542 62.4466 174.485 66.3136 174.485 70.3457C174.485 74.3778 169.542 78.2448 160.743 81.0959C151.945 83.947 140.012 85.5488 127.569 85.5488C115.127 85.5488 103.194 83.947 94.3953 81.0959C85.597 78.2448 80.6541 74.3778 80.6538 70.3457C80.6539 66.3253 85.5682 62.4686 94.3214 59.6194C103.075 56.7702 114.954 55.1605 127.36 55.1426ZM79.9996 83.8223C82.7519 85.7653 86.0877 87.4519 89.7979 88.8789C99.7718 92.7159 113.281 95.0039 128.001 95.0039C142.722 95.0039 156.229 92.7159 166.202 88.8789C169.911 87.4529 173.246 85.7672 175.997 83.8242V95.0449C175.976 96.5911 174.879 98.9637 170.813 101.672C166.806 104.34 160.763 106.72 153.132 108.414C145.546 110.099 136.874 111 128.001 111C119.129 111 110.456 110.099 102.869 108.414C95.2392 106.72 89.1959 104.34 85.1888 101.672C81.0863 98.9389 80.0006 96.545 79.9996 95V83.8223ZM79.9996 107.787C80.2528 107.967 80.4929 108.157 80.7534 108.33C85.8748 111.741 92.9579 114.409 101.135 116.225C109.358 118.051 118.618 119 128.001 119C137.384 119 146.642 118.051 154.865 116.225C163.042 114.409 170.127 111.741 175.249 108.33C175.507 108.158 175.745 107.969 175.997 107.791V119.045C175.976 120.591 174.879 122.964 170.813 125.672C166.806 128.341 160.763 130.72 153.132 132.414C145.546 134.099 136.874 135 128.001 135C119.129 135 110.456 134.099 102.869 132.414C95.2392 130.72 89.1959 128.341 85.1888 125.672C81.0863 122.939 80.0006 120.545 79.9996 119V107.787ZM79.9996 131.787C80.2528 131.967 80.4929 132.157 80.7534 132.33C85.8748 135.741 92.9579 138.409 101.135 140.225C109.358 142.051 118.618 143 128.001 143C137.384 143 146.642 142.051 154.865 140.225C163.042 138.409 170.127 135.741 175.249 132.33C175.507 132.158 175.745 131.969 175.997 131.791V143.006H176.001C175.997 144.551 174.911 146.942 170.813 149.672C166.806 152.341 160.763 154.72 153.133 156.414C145.546 158.099 136.874 159 128.001 159C119.13 159 110.456 158.099 102.87 156.414C95.2393 154.72 89.1959 152.341 85.1889 149.672C81.0912 146.942 80.0032 144.551 79.9997 143.006C79.9997 143.004 79.9997 143.002 79.9997 143L79.9996 131.787Z" fill="url(#paint3_linear)"/>
<path opacity="0.25" d="M155.608 17V61.2306C155.608 70.141 162.867 77.1605 171.777 77.1605L216.009 77.1493V75.1493L155.608 17Z" fill="#282828"/>
<path d="M155.608 15V59.2306C155.608 68.141 162.867 75.1605 171.777 75.1605L216.009 75.1493L155.608 15Z" fill="url(#paint4_linear)"/>
<defs>
<filter id="filter0_f" x="23.8778" y="0.441412" width="207.255" height="255.418" filterUnits="userSpaceOnUse" color-interpolation-filters="sRGB">
<feFlood flood-opacity="0" result="BackgroundImageFix"/>
<feBlend mode="normal" in="SourceGraphic" in2="BackgroundImageFix" result="shape"/>
<feGaussianBlur stdDeviation="7.5611" result="effect1_foregroundBlur"/>
</filter>
<linearGradient id="paint0_linear" x1="39" y1="186.5" x2="39" y2="240.174" gradientUnits="userSpaceOnUse">
<stop offset="1e-07" stop-color="#fabd2f"/>
<stop offset="1" stop-color="#b57614"/>
</linearGradient>
<linearGradient id="paint1_linear" x1="39" y1="15" x2="39" y2="240.174" gradientUnits="userSpaceOnUse">
<stop offset="1e-07" stop-color="#fabd2f"/>
<stop offset="1" stop-color="#b57614"/>
</linearGradient>
<linearGradient id="paint2_linear" x1="39" y1="187" x2="39" y2="240" gradientUnits="userSpaceOnUse">
<stop offset="1e-07" stop-color="#fabd2f"/>
<stop offset="1" stop-color="#b57614"/>
</linearGradient>
<linearGradient id="paint3_linear" x1="72.0006" y1="95" x2="72.0006" y2="167" gradientUnits="userSpaceOnUse">
<stop offset="1e-07" stop-color="#fabd2f"/>
<stop offset="1" stop-color="#b57614"/>
</linearGradient>
<linearGradient id="paint4_linear" x1="155.608" y1="15" x2="155.608" y2="75.1605" gradientUnits="userSpaceOnUse">
<stop offset="1e-07" stop-color="#fabd2f"/>
<stop offset="1" stop-color="#b57614"/>
</linearGradient>
</defs>
</svg>

<svg width="256" height="256" fill="none" version="1.1" viewBox="0 0 256 256" xmlns="http://www.w3.org/2000/svg">
  <path d="m55.08 15h100.5l60.4 60.15 2e-3 148.9c0 8.911-7.262 16.13-16.17 16.13h-144.8c-8.91 0-16.08-7.174-16.08-16.08v-193c0-8.91 7.173-16.08 16.08-16.08h1e-4z" fill="#ebdbb2"/>
  <path d="m199.8 240.2c8.911 0 16.17-7.218 16.17-16.13l-1e-3 -37.55h-177v37.59c0 8.91 7.173 16.08 16.08 16.08h144.8z" fill="url(#paint0_linear)" opacity=".2"/>
  <path d="m155.6 20.32h-100.5c-5.973 0-10.76 4.792-10.76 10.76v193c0 5.973 4.792 10.76 10.76 10.76h144.8c5.992 0 10.85-4.856 10.85-10.81v-148.9l-55.08-54.83zm0-5.319h-100.5c-8.91 0-16.08 7.173-16.08 16.08v193c0 8.91 7.173 16.08 16.08 16.08h144.8c8.911 0 16.17-7.218 16.17-16.13l-2e-3 -148.9-60.4-60.15z" clip-rule="evenodd" fill="url(#paint1_linear)" fill-rule="evenodd"/>
  <path d="m99.93 226.5c9.04 0 12.28-7.56 12.28-14.48s-3.24-14.48-12.28-14.48c-9 0-12.28 7.56-12.28 14.48s3.28 14.48 12.28 14.48zm0-4.6c-5.44 0-7.32-5.32-7.32-9.88 0-4.32 1.88-9.88 7.32-9.88 5.44 0 7.32 5.28 7.32 9.88 0 4.28-1.92 9.88-7.32 9.88zm18.1-23.88v28h8.48c10.28 0 13.64-7.6 13.64-14 0-6.96-3.68-14-13.48-14h-8.64zm9.16 23.48h-4.36v-18.96h4.8c5.32 0 7.56 4.76 7.56 9.48 0 4.4-2.04 9.48-8 9.48zm18.77-23.48v28h12.04c6.92 0 9.36-4.4 9.36-8.28 0-2.52-1.28-5.28-4.6-6.48 2.48-1.2 3.6-3.4 3.6-5.76 0-3.8-2.2-7.48-8.96-7.48h-11.44zm10.8 11.28h-6v-6.84h6.76c3.32 0 4 1.76 4 3.4 0 2.04-1.56 3.44-4.76 3.44zm1.52 12.28h-7.52v-7.84h6.36c4.36 0 5.36 2.04 5.36 4.12 0 1.72-0.92 3.72-4.2 3.72z" fill="url(#paint2_linear)"/>
  <path d="m128 47c-14.72 0-28.23 2.288-38.2 6.125-4.974 1.913-9.272 4.29-12.4 7.133-2.881 2.62-5.035 5.904-5.355 9.75h-0.0449v73c0.0034 5.476 3.728 9.977 8.753 13.32 5.121 3.411 12.2 6.079 20.38 7.895 8.223 1.826 17.48 2.775 26.87 2.775s18.64-0.949 26.86-2.775c8.176-1.816 15.26-4.484 20.38-7.895 5.025-3.347 8.748-7.848 8.751-13.32h-4e-3v-23.91c0-0.031 4e-3 -0.061 4e-3 -0.092h-4e-3v-23.91c0-0.0309 4e-3 -0.0608 4e-3 -0.0918h-4e-3v-25h-0.041c-0.32-3.846-2.471-7.13-5.353-9.75-3.125-2.842-7.426-5.22-12.4-7.133-9.973-3.837-23.48-6.125-38.2-6.125zm-0.641 8.143c0.07-1e-4 0.14-1e-4 0.209 0 12.44 0 24.38 1.602 33.17 4.453 8.799 2.851 13.74 6.718 13.74 10.75s-4.943 7.899-13.74 10.75c-8.798 2.851-20.73 4.453-33.17 4.453-12.44 0-24.38-1.602-33.17-4.453-8.798-2.851-13.74-6.718-13.74-10.75 1e-4 -4.02 4.914-7.877 13.67-10.73 8.754-2.849 20.63-4.459 33.04-4.477zm-47.36 28.68c2.752 1.943 6.088 3.63 9.798 5.057 9.974 3.837 23.48 6.125 38.2 6.125 14.72 0 28.23-2.288 38.2-6.125 3.709-1.426 7.044-3.112 9.795-5.055v11.22c-0.021 1.546-1.118 3.919-5.184 6.627-4.007 2.668-10.05 5.048-17.68 6.742-7.586 1.685-16.26 2.586-25.13 2.586-8.872 0-17.54-0.901-25.13-2.586-7.63-1.694-13.67-4.074-17.68-6.742-4.102-2.733-5.188-5.127-5.189-6.672v-11.18zm0 23.96c0.2532 0.18 0.4933 0.37 0.7538 0.543 5.121 3.411 12.2 6.079 20.38 7.895 8.223 1.826 17.48 2.775 26.87 2.775s18.64-0.949 26.86-2.775c8.177-1.816 15.26-4.484 20.38-7.895 0.258-0.172 0.496-0.361 0.748-0.539v11.25c-0.021 1.546-1.118 3.919-5.184 6.627-4.007 2.669-10.05 5.048-17.68 6.742-7.586 1.685-16.26 2.586-25.13 2.586-8.872 0-17.54-0.901-25.13-2.586-7.63-1.694-13.67-4.073-17.68-6.742-4.102-2.733-5.188-5.127-5.189-6.672v-11.21zm0 24c0.2532 0.18 0.4933 0.37 0.7538 0.543 5.121 3.411 12.2 6.079 20.38 7.895 8.223 1.826 17.48 2.775 26.87 2.775s18.64-0.949 26.86-2.775c8.177-1.816 15.26-4.484 20.38-7.895 0.258-0.172 0.496-0.361 0.748-0.539v11.22h4e-3c-4e-3 1.545-1.09 3.936-5.188 6.666-4.007 2.669-10.05 5.048-17.68 6.742-7.587 1.685-16.26 2.586-25.13 2.586-8.871 0-17.54-0.901-25.13-2.586-7.631-1.694-13.67-4.073-17.68-6.742-4.098-2.73-5.186-5.121-5.189-6.666v-6e-3l-1e-4 -11.21z" fill="url(#paint3_linear)"/>
  <path d="m155.6 17v44.23c0 8.91 7.259 15.93 16.17 15.93l44.23-0.0112v-2l-60.4-58.15z" fill="#282828" opacity=".25"/>
  <path d="m155.6 15v44.23c0 8.91 7.259 15.93 16.17 15.93l44.23-0.0112-60.4-60.15z" fill="url(#paint4_linear)"/>
  <defs>
    <linearGradient id="paint0_linear" x1="39" x2="39" y1="186.5" y2="240.2" gradientUnits="userSpaceOnUse">
      <stop stop-color="#fabd2f" offset="1e-7"/>
      <stop stop-color="#b57614" offset="1"/>
    </linearGradient>
    <linearGradient id="paint1_linear" x1="39" x2="39" y1="15" y2="240.2" gradientUnits="userSpaceOnUse">
      <stop stop-color="#fabd2f" offset="1e-7"/>
      <stop stop-color="#b57614" offset="1"/>
    </linearGradient>
    <linearGradient id="paint2_linear" x1="39" x2="39" y1="187" y2="240" gradientUnits="userSpaceOnUse">
      <stop stop-color="#fabd2f" offset="1e-7"/>
      <stop stop-color="#b57614" offset="1"/>
    </linearGradient>
    <linearGradient id="paint3_linear" x1="72" x2="72" y1="95" y2="167" gradientUnits="userSpaceOnUse">
      <stop stop-color="#fabd2f" offset="1e-7"/>
      <stop stop-color="#b57614" offset="1"/>
    </linearGradient>
    <linearGradient id="paint4_linear" x1="155.6" x2="155.6" y1="15" y2="75.16" gradientUnits="userSpaceOnUse">
      <stop stop-color="#fabd2f" offset="1e-7"/>
      <stop stop-color="#b57614" offset="1"/>
    </linearGradient>
  </defs>
</svg>
